icons/circle/48/ocsstore.svg

<svg version="1.1" viewBox="0 0 48 48" xmlns="http://www.w3.org/2000/svg">
 <defs>
  <linearGradient id="linearGradient3764" x1="1" x2="47" gradientTransform="matrix(0 -1 1 0 -1.5e-6 48)" gradientUnits="userSpaceOnUse">
   <stop style="stop-color:#c4f8df" offset="0"/>
   <stop style="stop-color:#d6fae9" offset="1"/>
  </linearGradient>
 </defs>
 <path d="m36.31 5c5.859 4.062 9.688 10.831 9.688 18.5 0 12.426-10.07 22.5-22.5 22.5-7.669 0-14.438-3.828-18.5-9.688 1.037 1.822 2.306 3.499 3.781 4.969 4.085 3.712 9.514 5.969 15.469 5.969 12.703 0 23-10.298 23-23 0-5.954-2.256-11.384-5.969-15.469-1.469-1.475-3.147-2.744-4.969-3.781zm4.969 3.781c3.854 4.113 6.219 9.637 6.219 15.719 0 12.703-10.297 23-23 23-6.081 0-11.606-2.364-15.719-6.219 4.16 4.144 9.883 6.719 16.219 6.719 12.703 0 23-10.298 23-23 0-6.335-2.575-12.06-6.719-16.219z" style="opacity:.05"/>
 <path d="m41.28 8.781c3.712 4.085 5.969 9.514 5.969 15.469 0 12.703-10.297 23-23 23-5.954 0-11.384-2.256-15.469-5.969 4.113 3.854 9.637 6.219 15.719 6.219 12.703 0 23-10.298 23-23 0-6.081-2.364-11.606-6.219-15.719z" style="opacity:.1"/>
 <path d="m31.25 2.375c8.615 3.154 14.75 11.417 14.75 21.13 0 12.426-10.07 22.5-22.5 22.5-9.708 0-17.971-6.135-21.12-14.75a23 23 0 0 0 44.875 -7 23 23 0 0 0 -16 -21.875z" style="opacity:.2"/>
 <path d="m24 1c12.703 0 23 10.297 23 23s-10.297 23-23 23-23-10.297-23-23 10.297-23 23-23z" style="fill:url(#linearGradient3764)"/>
 <path d="m40.03 7.531c3.712 4.084 5.969 9.514 5.969 15.469 0 12.703-10.297 23-23 23-5.954 0-11.384-2.256-15.469-5.969 4.178 4.291 10.01 6.969 16.469 6.969 12.703 0 23-10.298 23-23 0-6.462-2.677-12.291-6.969-16.469z" style="opacity:.1"/>
 <path d="m25 10c-3.6299 2e-3 -7.1342 1.3292-9.8633 3.7227l3.5762 3.5762c0.39103-0.18604 0.82373-0.29883 1.2871-0.29883h10c0.46338 0 0.89608 0.11279 1.2871 0.29883l3.582-3.582c-2.7314-2.3926-6.238-3.7185-9.8691-3.7168zm-11.283 5.1309c-2.3926 2.7314-3.7183 6.238-3.7168 9.8691 0.0015 3.6299 1.3292 7.1343 3.7227 9.8633l3.5762-3.5762c-0.18604-0.39103-0.29883-0.82373-0.29883-1.2871v-10c0-0.46338 0.11279-0.89608 0.29883-1.2871zm22.561 0.0059-3.5762 3.5762c0.18604 0.39099 0.29883 0.82369 0.29883 1.2871v10c0 0.46338-0.11279 0.89608-0.29883 1.2871l3.582 3.582c2.3926-2.7314 3.7183-6.238 3.7168-9.8691-0.0015-3.6299-1.3292-7.1343-3.7227-9.8633zm-17.564 17.564-3.582 3.582c2.7314 2.3926 6.238 3.7185 9.8691 3.7168 3.6299-2e-3 7.1342-1.3292 9.8633-3.7227l-3.5762-3.5762c-0.39103 0.18604-0.82373 0.29883-1.2871 0.29883h-10c-0.46338 0-0.89608-0.11279-1.2871-0.29883z" style="opacity:.1"/>
 <path d="m35.277 14.137-3.5762 3.5762c0.18604 0.39103 0.29883 0.82373 0.29883 1.2871v10c0 0.46338-0.11279 0.89608-0.29883 1.2871l3.582 3.582c2.3926-2.7314 3.7183-6.238 3.7168-9.8691-0.0015-3.6299-1.3292-7.1342-3.7227-9.8633z" style="fill:#ff4600"/>
 <path d="m17.713 31.701-3.582 3.582c2.7314 2.3926 6.238 3.7185 9.8691 3.7168 3.6299-2e-3 7.1342-1.3292 9.8633-3.7227l-3.5762-3.5762c-0.39103 0.18604-0.82373 0.29883-1.2871 0.29883h-10c-0.46338 0-0.89608-0.11279-1.2871-0.29883z" style="fill:#f0d209"/>
 <path d="m12.717 14.131c-2.3926 2.7314-3.7183 6.238-3.7168 9.8691 0.0015 3.6299 1.3292 7.1342 3.7227 9.8633l3.5762-3.5762c-0.18604-0.39103-0.29883-0.82373-0.29883-1.2871v-10c0-0.46338 0.11279-0.89608 0.29883-1.2871z" style="fill:#c11b6d"/>
 <path d="m24 9c-3.6299 2e-3 -7.1342 1.3292-9.8633 3.7227l3.5762 3.5762c0.39103-0.18604 0.82373-0.29883 1.2871-0.29883h10c0.46338 0 0.89608 0.11279 1.2871 0.29883l3.582-3.582c-2.7314-2.3926-6.238-3.7185-9.8691-3.7168z" style="fill:#1877a0"/>
</svg>

<svg viewBox="0 0 48 48" xmlns="http://www.w3.org/2000/svg">
  <defs>
    <linearGradient id="a" x1="1" x2="47" gradientTransform="rotate(-90 24 24)" gradientUnits="userSpaceOnUse">
      <stop offset="0" stop-color="#c4f8df"/>
      <stop offset="1" stop-color="#d6fae9"/>
    </linearGradient>
  </defs>
  <path d="M36.31 5c5.859 4.062 9.688 10.831 9.688 18.5 0 12.426-10.07 22.5-22.5 22.5-7.669 0-14.438-3.828-18.5-9.688a23.24 23.24 0 0 0 3.781 4.969 22.923 22.923 0 0 0 15.469 5.969c12.703 0 23-10.298 23-23a22.92 22.92 0 0 0-5.969-15.469A23.216 23.216 0 0 0 36.31 5zm4.969 3.781A22.911 22.911 0 0 1 47.498 24.5c0 12.703-10.297 23-23 23a22.909 22.909 0 0 1-15.719-6.219C12.939 45.425 18.662 48 24.998 48c12.703 0 23-10.298 23-23 0-6.335-2.575-12.06-6.719-16.219z" opacity=".05"/>
  <path d="M41.28 8.781a22.923 22.923 0 0 1 5.969 15.469c0 12.703-10.297 23-23 23A22.92 22.92 0 0 1 8.78 41.281 22.911 22.911 0 0 0 24.499 47.5c12.703 0 23-10.298 23-23A22.909 22.909 0 0 0 41.28 8.781z" opacity=".1"/>
  <path d="M31.25 2.375C39.865 5.529 46 13.792 46 23.505c0 12.426-10.07 22.5-22.5 22.5-9.708 0-17.971-6.135-21.12-14.75a23 23 0 0 0 44.875-7 23 23 0 0 0-16-21.875z" opacity=".2"/>
  <path d="M24 1c12.703 0 23 10.297 23 23S36.703 47 24 47 1 36.703 1 24 11.297 1 24 1z" fill="url(#a)"/>
  <path d="M40.03 7.531A22.922 22.922 0 0 1 45.999 23c0 12.703-10.297 23-23 23A22.92 22.92 0 0 1 7.53 40.031C11.708 44.322 17.54 47 23.999 47c12.703 0 23-10.298 23-23 0-6.462-2.677-12.291-6.969-16.469z" opacity=".1"/>
  <path d="M25 10a14.976 14.976 0 0 0-9.863 3.723l3.576 3.576A2.982 2.982 0 0 1 20 17h10c.463 0 .896.113 1.287.299l3.582-3.582A14.973 14.973 0 0 0 25 10zm-11.283 5.13A14.974 14.974 0 0 0 10 25a14.974 14.974 0 0 0 3.723 9.863l3.576-3.576A2.982 2.982 0 0 1 17 30V20c0-.463.113-.896.3-1.287zm22.561.007l-3.576 3.576c.186.391.299.824.299 1.287v10c0 .463-.113.896-.3 1.287l3.583 3.582A14.974 14.974 0 0 0 40 25a14.974 14.974 0 0 0-3.723-9.863zM18.714 32.7l-3.582 3.582A14.973 14.973 0 0 0 25.002 40a14.976 14.976 0 0 0 9.862-3.723L31.288 32.7a2.982 2.982 0 0 1-1.287.299h-10c-.463 0-.896-.113-1.287-.3z" opacity=".1"/>
  <path d="M35.277 14.137l-3.576 3.576c.186.391.299.824.299 1.287v10c0 .464-.113.896-.3 1.287l3.583 3.582A14.974 14.974 0 0 0 39 24a14.974 14.974 0 0 0-3.723-9.863z" fill="#ff4600"/>
  <path d="M17.713 31.701l-3.582 3.582A14.973 14.973 0 0 0 24.001 39a14.976 14.976 0 0 0 9.862-3.723l-3.576-3.576A2.982 2.982 0 0 1 29 32H19c-.463 0-.896-.113-1.287-.3z" fill="#f0d209"/>
  <path d="M12.717 14.131A14.974 14.974 0 0 0 9 24.001a14.974 14.974 0 0 0 3.723 9.862l3.576-3.576A2.982 2.982 0 0 1 16 29V19c0-.463.113-.896.3-1.287z" fill="#c11b6d"/>
  <path d="M24 9a14.976 14.976 0 0 0-9.863 3.723l3.576 3.576A2.982 2.982 0 0 1 19 16h10c.463 0 .896.113 1.287.299l3.582-3.582A14.973 14.973 0 0 0 24 9z" fill="#1877a0"/>
</svg>
